packages/katcn/src/icons/svg/map.svg

<svg width="24" height="24" viewBox="0 0 24 24" fill="none" xmlns="http://www.w3.org/2000/svg">
<path d="M21.9912 4.2C21.2848 3.7 20.3765 3.7 19.6701 4L15.4315 5.8L9.17446 3.1C8.97262 3 8.8717 3 8.77078 3H8.66986C8.56894 3 8.46803 3 8.36711 3.1L3.01839 5.3C1.80735 5.8 1 7 1 8.4V17.6C1 18.5 1.40368 19.3 2.21103 19.8C2.61471 20.1 3.1193 20.2 3.6239 20.2C3.92666 20.2 4.33034 20.1 4.63309 20L6.55056 19.2C7.05516 19 7.25699 18.4 7.05516 17.9C6.85332 17.4 6.2478 17.2 5.74321 17.4L3.82574 18.2C3.6239 18.3 3.42206 18.2 3.32114 18.2C3.22022 18.1 3.01839 17.9 3.01839 17.6V8.4C3.01839 7.8 3.32114 7.3 3.82574 7.1L7.66067 5.5V17.2C7.66067 17.6 7.86251 18 8.26619 18.1L15.0278 20.9C15.1287 20.9 15.2296 21 15.3305 21C15.4315 21 15.5324 21 15.6333 20.9L20.8811 18.7C22.0921 18.2 22.8995 16.9 22.8995 15.6V6.4C23.2022 5.5 22.7986 4.7 21.9912 4.2ZM9.77997 5.5L14.5232 7.5V9.6V18.5L9.77997 16.5V5.5ZM21.1839 15.6C21.1839 16.2 20.8811 16.7 20.3765 16.9L16.5416 18.5V9.6V7.5L20.4774 5.8C20.6793 5.7 20.8811 5.8 20.982 5.8C20.982 5.9 21.1839 6.1 21.1839 6.4V15.6Z" fill="black"/>
</svg>

<svg xmlns="http://www.w3.org/2000/svg" fill="none" viewBox="0 0 24 24"><path fill="#000" d="M21.991 4.2c-.706-.5-1.614-.5-2.32-.2l-4.24 1.8-6.257-2.7C8.973 3 8.872 3 8.771 3H8.67c-.101 0-.202 0-.303.1L3.018 5.3C1.808 5.8 1 7 1 8.4v9.2c0 .9.404 1.7 1.211 2.2.404.3.908.4 1.413.4.303 0 .706-.1 1.01-.2l1.917-.8c.504-.2.706-.8.504-1.3s-.807-.7-1.312-.5l-1.917.8c-.202.1-.404 0-.505 0-.1-.1-.303-.3-.303-.6V8.4c0-.6.303-1.1.808-1.3L7.66 5.5v11.7c0 .4.202.8.605.9l6.762 2.8c.1 0 .202.1.303.1s.201 0 .302-.1l5.248-2.2c1.211-.5 2.018-1.8 2.018-3.1V6.4c.303-.9-.1-1.7-.908-2.2M9.78 5.5l4.743 2v11l-4.743-2zm11.404 10.1c0 .6-.303 1.1-.808 1.3l-3.834 1.6v-11l3.935-1.7c.202-.1.404 0 .505 0 0 .1.202.3.202.6z"/></svg>
